svgs/regular/keynote.svg

<svg xmlns="http://www.w3.org/2000/svg" viewBox="0 0 512 512"><!-- Font Awesome Pro 6.0.0-alpha2 by @fontawesome - https://fontawesome.com License - https://fontawesome.com/license (Commercial License) --><path d="M507.406 257.875L443.406 169.875C438.891 163.688 431.672 160 424 160H144V136C144 101.172 168.877 72.055 201.797 65.438C209.135 74.148 219.719 80 232 80H312C334.092 80 352 62.09 352 40C352 17.906 334.092 0 312 0H232C218.377 0 206.939 7.246 199.715 17.648C141.293 25.688 96 75.422 96 136V160H88C80.328 160 73.109 163.688 68.594 169.875L4.594 257.875C1.609 262 0 266.938 0 272V328C0 341.25 10.75 352 24 352H232V464H152C138.75 464 128 474.75 128 488S138.75 512 152 512H360C373.25 512 384 501.25 384 488S373.25 464 360 464H280V352H488C501.25 352 512 341.25 512 328V272C512 266.938 510.391 262 507.406 257.875ZM464 304H48V279.812L100.219 208H411.781L464 279.812V304Z"/></svg>

<svg xmlns="http://www.w3.org/2000/svg" viewBox="0 0 512 512"><!--! Font Awesome Pro 6.0.0-alpha3 by @fontawesome - https://fontawesome.com License - https://fontawesome.com/license (Commercial License) --><path d="M507.4 257.9l-64-88C438.9 163.7 431.7 160 424 160H144V136c0-34.83 24.88-63.95 57.8-70.56C209.1 74.15 219.7 80 232 80h80C334.1 80 352 62.09 352 40C352 17.91 334.1 0 312 0h-80C218.4 0 206.9 7.246 199.7 17.65C141.3 25.69 96 75.42 96 136V160H88C80.33 160 73.11 163.7 68.59 169.9l-64 88C1.609 262 0 266.9 0 272v55.1C0 341.2 10.75 352 24 352h208v112h-80C138.8 464 128 474.8 128 488S138.8 512 152 512h208c13.25 0 24-10.75 24-24s-10.75-24-24-24h-80V352h208c13.25 0 24-10.75 24-24V272C512 266.9 510.4 262 507.4 257.9zM464 304h-416V279.8L100.2 208h311.6L464 279.8V304z"/></svg>
